!!!COM: Music21
!!!OTL: barndance_Kilnamona
!!!OMV: barndance_Kilnamona
**kern
*clefG2
*k[b-]
*F:
*M4/4
=1
8ccL
8fJ
8aL
8ccJ
8fL
8gJ
8aL
8ccJ
=
4cc
4b-
4.g
8a
=
4b-
4g
4.dd
8dd
=
4dd
4cc
2a
=
8ccL
8fJ
8aL
8ccJ
8fL
8gJ
8aL
8ccJ
=
4cc
4b-
4.g
8a
=
4b-
4g
4dd
4cc
!!linebreak:original
=
2f
2f
=||
*M4/4
8ccL
8fJ
8aL
8ccJ
8fL
8gJ
8aL
8ccJ
=
4cc
4b-
4.g
8a
=
4b-
4g
4.dd
8dd
=
4dd
4cc
2a
=
8ccL
8fJ
8aL
8ccJ
8fL
8gJ
8aL
8ccJ
=
4cc
4b-
4.g
8a
!!linebreak:original
=
4b-
4g
4dd
4cc
=
2f
2f
=||
2aa
8aaL
8ggJ
8ffL
8aaJ
=
4.gg
8gg
8ggL
8ffJ
8ddL
8eeJ
=
8ffL
8ggJ
8ffL
8ddJ
4cc
8aL
8ccJ
=
4dd
12ggL
12gg
12ggJ
4gg
8ffL
8ggJ
=
4.aa
8aa
8aaL
8ggJ
8ffL
8aaJ
!!linebreak:original
=
4.gg
8gg
8ggL
8ffJ
8ddL
8eeJ
=
8ffL
8ggJ
8ffL
8ddJ
4cc
12aL
12b-
12ccJ
=
4dd
12ffL
12ff
12ffJ
2ff
=||
2aa
8aaL
8ggJ
8ffL
8aaJ
=
4.gg
8gg
8ggL
8ffJ
8ddL
8eeJ
=
8ffL
8ggJ
8ffL
8ddJ
4cc
8aL
8ccJ
!!linebreak:original
=
4dd
12ggL
12gg
12ggJ
4gg
8ffL
8ggJ
=
4.aa
8aa
8aaL
8ggJ
8ffL
8aaJ
=
4.gg
8gg
8ggL
8ffJ
8ddL
8eeJ
=
8ffL
8ggJ
8ffL
8ddJ
4cc
12aL
12b-
12ccJ
=
4dd
4ff
2a 2ff
=||
*-
